#define small_max_bvrbw.xbm_width 48
#define small_max_bvrbw.xbm_height 48
#define small_max_bvrbw.xbm_x_hot 0
#define small_max_bvrbw.xbm_y_hot 0
static unsigned char small_max_bvrbw.xbm_bits[] = {
   0x00, 0x00, 0xf0, 0x0f, 0x00, 0x00, 0x00, 0x00, 0x0c, 0x1c, 0x00, 0x00,
   0x00, 0x00, 0x06, 0x38, 0x00, 0x00, 0x00, 0x00, 0x02, 0x30, 0x00, 0x00,
   0x00, 0x00, 0x07, 0xf0, 0x07, 0x00, 0x00, 0x00, 0x03, 0x10, 0x06, 0x00,
   0x00, 0x00, 0x05, 0xec, 0x03, 0x00, 0x00, 0x00, 0x3b, 0x1f, 0x0c, 0x00,
   0x00, 0x00, 0xfd, 0x73, 0x16, 0x00, 0x00, 0x00, 0x4b, 0x79, 0x1c, 0x00,
   0x00, 0x00, 0x9d, 0x3c, 0xf0, 0x1f, 0x00, 0x00, 0x3f, 0x00, 0x3e, 0x10,
   0x00, 0x00, 0x34, 0x00, 0x37, 0x10, 0x00, 0x00, 0x0a, 0x00, 0xf4, 0x13,
   0x00, 0x00, 0x0f, 0x00, 0x93, 0x13, 0x00, 0x80, 0x1f, 0x00, 0x7a, 0x12,
   0x00, 0x40, 0x20, 0x20, 0x1f, 0x12, 0x00, 0x20, 0x40, 0x90, 0x67, 0x12,
   0x00, 0x20, 0x00, 0x58, 0x81, 0x13, 0x00, 0x10, 0x00, 0xae, 0xff, 0x13,
   0x00, 0x08, 0x00, 0xd2, 0x00, 0x10, 0x00, 0x04, 0x00, 0x49, 0x01, 0x10,
   0x00, 0x04, 0xa4, 0x71, 0x03, 0x10, 0x00, 0x0c, 0xbc, 0x69, 0x03, 0xf0,
   0x00, 0x0c, 0x18, 0x31, 0x33, 0xf3, 0x00, 0x1e, 0x10, 0xa9, 0x67, 0xf6,
   0x00, 0x7e, 0x20, 0xf1, 0xcc, 0xfc, 0x00, 0xd3, 0x21, 0xe3, 0x99, 0xf9,
   0x00, 0x41, 0x67, 0x53, 0x00, 0xf0, 0x80, 0x81, 0x6f, 0x61, 0x00, 0x10,
   0x80, 0x80, 0x63, 0xc2, 0x00, 0x10, 0x40, 0x81, 0x35, 0xe6, 0x01, 0x10,
   0xc0, 0x00, 0x1f, 0x44, 0xff, 0x13, 0x40, 0x00, 0x00, 0x4c, 0x81, 0x13,
   0xe0, 0x00, 0x00, 0x48, 0x67, 0x12, 0x60, 0x00, 0x00, 0x48, 0x19, 0x12,
   0xd0, 0x00, 0x00, 0x48, 0x67, 0x12, 0x68, 0x01, 0x00, 0x58, 0x81, 0x13,
   0xa4, 0x00, 0x00, 0x58, 0xff, 0x13, 0x82, 0x01, 0x00, 0xc8, 0x00, 0x10,
   0xa2, 0x01, 0x00, 0xc8, 0x00, 0x10, 0x41, 0x03, 0x00, 0xe8, 0xff, 0x1f,
   0x41, 0xff, 0x00, 0x64, 0x0e, 0x00, 0xa9, 0x02, 0x01, 0x3e, 0x1c, 0x00,
   0xd5, 0x00, 0x22, 0xfb, 0x1f, 0x00, 0x39, 0x5c, 0xd3, 0x73, 0x06, 0x00,
   0x82, 0xab, 0x73, 0xe4, 0x00, 0x00, 0xfc, 0xff, 0x03, 0x7e, 0x00, 0x00};
