#define small_sue_bvrbw.xbm_width 48
#define small_sue_bvrbw.xbm_height 48
#define small_sue_bvrbw.xbm_x_hot 0
#define small_sue_bvrbw.xbm_y_hot 0
static unsigned char small_sue_bvrbw.xbm_bits[] = {
   0x00, 0x00, 0xfe, 0x00, 0x00, 0x00, 0x00, 0x00, 0x03, 0x03, 0x00, 0x00,
   0x00, 0x80, 0x01, 0x04, 0x00, 0xc0, 0x00, 0xc0, 0x02, 0x04, 0x00, 0xc0,
   0x00, 0x40, 0x01, 0x08, 0x00, 0xc0, 0x00, 0xc0, 0x00, 0x08, 0x00, 0xc0,
   0x00, 0x40, 0x01, 0x08, 0x00, 0xc0, 0x00, 0xc0, 0x02, 0x1c, 0x00, 0xc0,
   0x00, 0x70, 0xaf, 0x76, 0x00, 0xc0, 0x00, 0xd8, 0xf9, 0x53, 0x00, 0xc0,
   0x00, 0x58, 0x07, 0x58, 0x00, 0xc0, 0x00, 0x70, 0x58, 0x7e, 0x00, 0xc0,
   0x00, 0x30, 0xf7, 0x2b, 0x00, 0xc0, 0x00, 0x50, 0x0d, 0x2e, 0x00, 0xc0,
   0x00, 0x30, 0x0e, 0x46, 0x00, 0xc0, 0x00, 0x10, 0xc0, 0x41, 0x00, 0xc0,
   0x00, 0x38, 0x20, 0x42, 0x38, 0xff, 0x00, 0x18, 0xe0, 0x43, 0x38, 0xff,
   0x00, 0x34, 0xa0, 0x43, 0x38, 0x03, 0x00, 0x4a, 0x42, 0x51, 0x38, 0x03,
   0x00, 0x06, 0x86, 0x50, 0x38, 0x03, 0x00, 0x01, 0xfc, 0x6f, 0x38, 0x03,
   0xfc, 0xff, 0xbf, 0xfe, 0x3f, 0x03, 0xfe, 0xff, 0xbf, 0xfe, 0x3f, 0x03,
   0xfe, 0xff, 0xbf, 0xfe, 0x3f, 0x03, 0x80, 0xc0, 0xf3, 0x88, 0x39, 0x03,
   0x80, 0x00, 0xcc, 0x3f, 0x3b, 0x03, 0x80, 0x01, 0x82, 0x1d, 0x3b, 0x03,
   0x80, 0x03, 0xf0, 0x16, 0x3a, 0x03, 0x80, 0x06, 0x9c, 0x03, 0x3a, 0x03,
   0x40, 0x0d, 0x0e, 0x07, 0x3a, 0xff, 0xc0, 0xfa, 0x03, 0x0c, 0x3b, 0xff,
   0xe0, 0xf1, 0x00, 0xb8, 0x01, 0xc0, 0x30, 0x01, 0xc1, 0xe3, 0x01, 0xc0,
   0x10, 0x82, 0x30, 0x14, 0x01, 0xc0, 0x08, 0x04, 0x08, 0x98, 0x03, 0xc0,
   0x08, 0x40, 0x24, 0x50, 0x05, 0xc0, 0x08, 0x88, 0x14, 0x10, 0x08, 0xc0,
   0x0c, 0xc0, 0x12, 0x30, 0x08, 0xc0, 0x14, 0xa0, 0x0a, 0x28, 0x08, 0xc0,
   0x0c, 0x60, 0x09, 0x30, 0x08, 0xc0, 0x1c, 0xc0, 0x09, 0x69, 0x0c, 0xc0,
   0x08, 0xd0, 0x04, 0xb5, 0x08, 0xc0, 0x18, 0xa0, 0x84, 0x68, 0x0e, 0xc0,
   0x70, 0x57, 0x96, 0xb4, 0x1e, 0x00, 0xb0, 0x69, 0xeb, 0xda, 0x25, 0x00,
   0xa8, 0xf9, 0x75, 0xbd, 0x68, 0x00, 0x78, 0xf9, 0xff, 0xe7, 0x1f, 0x00};
